assets/images/script/j-5-e1.svg

<svg fill="none" height="152" viewBox="0 0 472 152" width="472" xmlns="http://www.w3.org/2000/svg"><path d="m62.968 141.162c1.3031 0-.8699.406-1.1163.638-3.0922 2.921 12.3927 5.069 12.5983 5.103 16.8658 2.845 33.9 2.61 50.553-1.594 14.523-3.667 33.807-9.693 44.094-21.449 18.7-21.372-20.522-35.6776-35.323-38.3533-35.7766-6.4672-72.965-.5709-107.4846 9.7278-7.0716 2.1098-13.7427 4.9225-20.57184 7.6545-1.57467.63-4.26122.912-2.07313-1.276 15.42127-15.4209 38.80137-27.478 57.01127-38.8311 41.0463-25.5907 84.3923-43.9592 131.6743-55.08432 14.208-3.34313 31.973-8.093494 46.247-2.23261 10.43 4.28284 13.215 16.19373 14.99 26.15343 6.056 33.9816 7.121 49.0117 12.641 83.1786.273 1.686 4.688 36.179 7.163 34.446 1.502-7.981 1.502-9.981 1.502-14.911 0-21.07 9.539-25.152 25.735-33.715 23.057-12.1911 31.448-12.2934 64.872-11.3226 18.906.5491 32.52 2.9673 48.081 4.8076 15.561 1.8402 29.349 2.148 41.224 10.23 19.66 13.38 18.587 29.422 1.275 42.406" stroke="#000" stroke-linecap="round" stroke-width="5"/></svg>

<svg width="472" height="152" viewBox="0 0 472 152" fill="none" xmlns="http://www.w3.org/2000/svg">
<path d="M62.968 141.162C64.2711 141.162 62.0981 141.568 61.8517 141.8C58.7595 144.721 74.2444 146.869 74.45 146.903C91.3158 149.748 108.35 149.513 125.003 145.309C139.526 141.642 158.81 135.616 169.097 123.86C187.797 102.488 148.575 88.1824 133.774 85.5067C97.9974 79.0395 60.809 84.9358 26.2894 95.2345C19.2178 97.3443 12.5467 100.157 5.71756 102.889C4.14289 103.519 1.45634 103.801 3.64443 101.613C19.0657 86.1921 42.4458 74.135 60.6557 62.7819C101.702 37.1912 145.048 18.8227 192.33 7.69758C206.538 4.35445 224.303 -0.395914 238.577 5.46497C249.007 9.74781 251.792 21.6587 253.567 31.6184C259.623 65.6 260.688 80.6301 266.208 114.797C266.481 116.483 270.896 150.976 273.371 149.243C274.873 141.262 274.873 139.262 274.873 134.332C274.873 113.262 284.412 109.18 300.608 100.617C323.665 88.4259 332.056 88.3236 365.48 89.2944C384.386 89.8435 398 92.2617 413.561 94.102C429.122 95.9422 442.91 96.25 454.785 104.332C474.445 117.712 473.372 133.754 456.06 146.738" stroke="black" stroke-width="5" stroke-linecap="round"/>
</svg>
